src/assets/acar-icons/arrow.svg

<?xml version="1.0" encoding="UTF-8" standalone="no"?>
<!-- Created with Inkscape (http://www.inkscape.org/) -->

<svg
   xmlns:dc="http://purl.org/dc/elements/1.1/"
   xmlns:cc="http://creativecommons.org/ns#"
   xmlns:rdf="http://www.w3.org/1999/02/22-rdf-syntax-ns#"
   xmlns:svg="http://www.w3.org/2000/svg"
   xmlns="http://www.w3.org/2000/svg"
   xmlns:sodipodi="http://sodipodi.sourceforge.net/DTD/sodipodi-0.dtd"
   xmlns:inkscape="http://www.inkscape.org/namespaces/inkscape"
   width="9.0311108mm"
   height="9.0496712mm"
   viewBox="0 0 31.999999 32.065764"
   id="svg6047"
   version="1.1"
   inkscape:version="0.91 r13725"
   sodipodi:docname="arrow.svg">
  <defs
     id="defs6049" />
  <sodipodi:namedview
     id="base"
     pagecolor="#ffffff"
     bordercolor="#666666"
     borderopacity="1.0"
     inkscape:pageopacity="0.0"
     inkscape:pageshadow="2"
     inkscape:zoom="10.197806"
     inkscape:cx="24.796561"
     inkscape:cy="20.304997"
     inkscape:document-units="px"
     inkscape:current-layer="layer1"
     showgrid="false"
     fit-margin-top="0"
     fit-margin-left="0"
     fit-margin-right="0"
     fit-margin-bottom="0"
     inkscape:window-width="1366"
     inkscape:window-height="705"
     inkscape:window-x="0"
     inkscape:window-y="30"
     inkscape:window-maximized="1"
     showguides="true"
     inkscape:guide-bbox="true" />
  <metadata
     id="metadata6052">
    <rdf:RDF>
      <cc:Work
         rdf:about="">
        <dc:format>image/svg+xml</dc:format>
        <dc:type
           rdf:resource="http://purl.org/dc/dcmitype/StillImage" />
        <dc:title />
      </cc:Work>
    </rdf:RDF>
  </metadata>
  <g
     inkscape:label="Layer 1"
     inkscape:groupmode="layer"
     id="layer1"
     transform="translate(-23.600308,-22.439716)">
    <path
       style="opacity:1;fill:#233f7d;fill-opacity:1;fill-rule:evenodd;stroke:none;stroke-width:2;stroke-linecap:round;stroke-linejoin:round;stroke-miterlimit:4;stroke-dasharray:none;stroke-opacity:1"
       d="M 16 0.06640625 A 16 16 0 0 0 0.12695312 14.15625 L 20.816406 14.15625 L 16.035156 9.375 L 16.035156 4.0683594 L 25.345703 13.378906 L 28 16.033203 L 25.345703 18.6875 L 16.035156 27.998047 L 16.035156 22.691406 L 20.816406 17.910156 L 0.12695312 17.910156 A 16 16 0 0 0 16 32.066406 A 16 16 0 0 0 32 16.066406 A 16 16 0 0 0 16 0.06640625 z "
       transform="translate(23.600308,22.439716)"
       id="path4140" />
  </g>
</svg>

<svg xmlns="http://www.w3.org/2000/svg" width="34.133" height="34.203" viewBox="0 0 32 32.066"><path d="M16 .066A16 16 0 0 0 .127 14.156h20.69l-4.782-4.781V4.068l9.31 9.31L28 16.034l-2.654 2.654-9.31 9.311v-5.307l4.78-4.78H.127A16 16 0 0 0 16 32.065a16 16 0 0 0 16-16 16 16 0 0 0-16-16z" fill="#233f7d" fill-rule="evenodd"/></svg>
